static/assets/img/icons/theme/electric/kettle.svg

<svg height="24" viewBox="0 0 24 24" width="24" xmlns="http://www.w3.org/2000/svg"><g fill="none" fill-rule="evenodd"><path d="m0 0h24v24h-24z" opacity="0"/><g fill="#000"><path d="m18 2c1.6568542 0 3 2.46243388 3 5.5 0 2.39473621-.8348088 4.432009-2.0000025 5.1870411l.0000025 6.3129589h-13v-9.79289322c0-.13260824-.05267842-.2597852-.14644661-.35355339l-1.48041507-1.48041507c-.20362356-.22774262-.18505765-.54381744.02134248-.72731537 2.53219934-2.25114743 4.56735941-3.63310302 6.1055192-4.14582295 1.4160658-.47202194 7.3056973-.53441888 7.4271769-.49841131.0242045-.00105713.0484799-.00158869.0728231-.00158869zm-.5 9c.2253478 0 1.5-1.92019569 1.5-4 0-1.86788133-.5-2.5-1.5-3 0 0 0 8 0 7zm-6.5 4h1c.5522847 0 1-.4477153 1-1s-.4477153-1-1-1h-1v-1h1c.5522847 0 1-.4477153 1-1s-.4477153-1-1-1h-1v-1h1c.5522847 0 1-.44771525 1-1s-.4477153-1-1-1h-1c0-1.1045695.8954305-2 2-2s2 .8954305 2 2v8c0 1.1045695-.8954305 2-2 2s-2-.8954305-2-2z"/><path d="m6 20h13c.5522847 0 1 .4477153 1 1v1h-15v-1c0-.5522847.44771525-1 1-1z" opacity=".3"/></g></g></svg>

<svg width="24px" height="24px" viewBox="0 0 24 24" version="1.1" xmlns="http://www.w3.org/2000/svg" xmlns:xlink="http://www.w3.org/1999/xlink">
    <title>Icon For Kettle</title>
    <g stroke="none" stroke-width="1" fill="none" fill-rule="evenodd">
        <rect opacity="0" x="0" y="0" width="24" height="24"></rect>
        <path d="M18,2 C19.6568542,2 21,4.46243388 21,7.5 C21,9.89473621 20.1651912,11.932009 18.9999975,12.6870411 L19,19 L6,19 L6,9.20710678 C6,9.07449854 5.94732158,8.94732158 5.85355339,8.85355339 L4.37313832,7.37313832 C4.16951476,7.1453957 4.18808067,6.82932088 4.3944808,6.64582295 C6.92668014,4.39467552 8.96184021,3.01271993 10.5,2.5 C11.9160658,2.02797806 17.8056973,1.96558112 17.9271769,2.00158869 C17.9513814,2.00053156 17.9756568,2 18,2 Z M17.5,11 C17.7253478,11 19,9.07980431 19,7 C19,5.13211867 18.5,4.5 17.5,4 C17.5,4 17.5,12 17.5,11 Z M11,15 L12,15 C12.5522847,15 13,14.5522847 13,14 C13,13.4477153 12.5522847,13 12,13 L11,13 L11,12 L12,12 C12.5522847,12 13,11.5522847 13,11 C13,10.4477153 12.5522847,10 12,10 L11,10 L11,9 L12,9 C12.5522847,9 13,8.55228475 13,8 C13,7.44771525 12.5522847,7 12,7 L11,7 C11,5.8954305 11.8954305,5 13,5 C14.1045695,5 15,5.8954305 15,7 L15,15 C15,16.1045695 14.1045695,17 13,17 C11.8954305,17 11,16.1045695 11,15 Z" fill="#000000"></path>
        <path d="M6,20 L19,20 C19.5522847,20 20,20.4477153 20,21 L20,22 L5,22 L5,21 C5,20.4477153 5.44771525,20 6,20 Z" fill="#000000" opacity="0.3"></path>
    </g>
</svg>
